X: 992
T: Hele Yâr Zâlım Yâr
C: Celal Güzelses
O: Turkey
F: http://compmusic.upf.edu/node/140
N: tahir--turku--sofyan--hele_yar--diyarbakir
N: makam= tahir
N: form= turku
N: usul= sofyan = 4/4
M: 4/4
L: 1/16
K: C _2/4B ^3/4f  
Q: 1/4=87
%%MIDI tuningsystem comma53
z2Bc d2d2 cBcd B3A  | A2cB c{d}BBA A4 A4  | \
w:   |   | 
z2Bc d2dB cBcd cBBA  | 
w:   | 
A2cB cBBA A4 A4  | z2Bc d2d2 cBcd B3A  | \
w:   |   | 
A2cB c{d}BBA A4 A4  | 
w:   | 
z2Bc d2dB cBcd cBBA  | A2cB cBBA A4 A4  | 
w:   |   | 
z2fg a4 a4 a4  | a2{b}ag a4 a2{b}ag a4  | \
w:  He le  yâr  yâr  yâr   |  zâ *  lım  *  yâr   Ha *  yın  *  yâr   | 
a2{b}ag a4 babg a4  | 
w:  kâ *  fir  *  yâr  çap *  kın  *  yâr    | 
z2g2 g2c'2 b2c'2 a2b2  | a2{b}ag a2a2 a2{b}ag a2af  | \
w:  Le  le  le  le  le  le  le    |  Ley *  lim  *  le  yâr  ley *  lim  *  le  yâr   | 
g2gf gfge e2ed d2z2  | 
w:  Ne  zâ *  lım *  sın  *  yâ *  *  rim    | 
d2d2 gfge e2ed d4  | d2d2 g2ge e2ed d4  | \
w:  Ben  sa na  *  kur *  bâ *  *  nım    |  Yü zü ne  müş *  tâ *  *  kım    | 
d3a gafg e2ed d4  | 
w:  Sev gi li  *  sul *  tâ *  *  nım    | 
z2Bc d2d2 cBcd B3A  | A2cB c{d}BBA A4 A4  | \
w:  Ya rın_ ak şam  siz *  *  *  de    |  Ben  sa *  na  *  *  mih *  mâ nım    | 
z2Bc d2dB cBcd cBBA  | 
w:  Se ni  gör me *  mi *  *  *  şem    | 
A2cB cBBA A4 A4  | z2Bc d2d2 cBcd B3A  | \
w:  Ya man *  dır_ *  ah *  vâ lım    |   | 
A2cB c{d}BBA A4 A4  | 
w:   | 
z2Bc d2dB cBcd cBBA  | A2cB cBBA A4 A4  | 
w:   |   | 
z2Bc d2d2 cBcd B3A  | A2cB c{d}BBA A4 A4  | \
w:   |   | 
z2Bc d2dB cBcd cBBA  | 
w:   | 
A2cB cBBA A4 A4  | z2fg a4 a4 a4  | a2{b}ag a4 a2{b}ag a4  | 
w:   |  He le  yâr  yâr  yâr   |  zâ *  lım  *  yâr   Ha *  yın  *  yâr   | 
a2{b}ag a4 babg a4  | z2g2 g2c'2 b2c'2 a2b2  | \
w:  kâ *  fir  *  yâr  çap *  kın  *  yâr    |  Le  le  le  le  le  le  le    | 
a2{b}ag a2a2 a2{b}ag a2af  | 
w:  Ley *  lim  *  le  yâr  ley *  lim  *  le  yâr   | 
g2gf gfge e2ed d2z2  | d2d2 gfge e2ed d4  | 
w:  Ne  zâ *  lım *  sın  *  yâ *  *  rim    |  Ben  sa na  *  kur *  bâ *  *  nım    | 
d2d2 g2ge e2ed d4  | d3a gafg e2ed d4  | \
w:  Yü zü ne  müş *  tâ *  *  kım    |  Sev gi li  *  sul *  tâ *  *  nım    | 
z2Bc d2d2 cBcd B3A  | 
w:  Ya rın_ ak şam  siz *  *  *  de    | 
A2cB c{d}BBA A4 A4  | z2Bc d2dB cBcd cBBA  | 
w:  Ben  sa *  na  *  *  mih *  mâ nım    |  Se ni  gör me *  mi *  *  *  şem    | 
A2cB cBBA A4 A4  | |


